X: 3
T: Barney Brannigan
R: slip jig
M: 9/8
L: 1/8
K: Dmaj
|: F2 A ABA ABA | F2 A ABc def | F2 A ABA ABA | Bcd efd cBA :| |: f2 a f2 a gfe | f2 a f2 a g2 e | f2 a f2 a gfe | cde efd cBA :||: f2 z a2 z d2 z | g2 f e2 d cBA | f2 z e2 z d2 z | B2 B A2 G FED :|


Tune 1429	Setting 14808

